X:37
T:Big Indian Blues
C:Mike Compton & David Long Stomp
N:Transcribed by Bruce Pohl
R:bluegrass
L:1/8
Q:1/4=120
M:4/4
K:C
[EA,]C EG Ac d^d | "Am"[^g/4^d/4][a/4e/4][a/e/][a/e/][a/e/] [a/e/][a/e/][a/e/][a/e/] [ae][=ge] [ge][c'e] | 
[ae][ae] [ge][ae] [a2e2] [a2e2] | [g/e/][g/e/][g/e/][g/e/] [g/e/][g/e/][g/e/][g/e/] [^ge][ge] [ae]e | 
[e/4d/4]e/4[e/e/][e/e/][e/e/] [e/e/][e/e/][e/e/][e/e/] [ee]z AE | "C"[c/4F/4]G/4[c/G/][c/G/][c/G/] [c/G/][c/G/][c/G/][c/G/] [cG]B AD | 
"E"[E/B,/][E/B,/][E/B,/][E/B,/] [E/B,/][E/B,/][E/B,/][E/B,/] CB, C/D/B, | "Am"A,2 A,2 A,2 [EA,]G, | 
A,C EG Ac d^d | [^g/4^d/4][a/4e/4][a/e/][a/e/][a/e/] [a/e/][a/e/][a/e/][a/e/] [ae][=ge] [ge][c'e] | 
[ae][ae] [ge][ae] [a2e2] [a2e2] | [g/e/][g/e/][g/e/][g/e/] [g/e/][g/e/][g/e/][g/e/] [^ge][ge] [ae]e | 
[e/4d/4]e/4[e/e/][e/e/][e/e/] [e/e/][e/e/][e/e/][e/e/] e/z/z AE | "C"[c/4F/4]G/4[c/G/][c/G/][c/G/] [c/G/][c/G/][c/G/][c/G/] [cG]B AD | 
"E"[EB,]D ^FD GD ^GD | "Am"[AG]A [A2A2] AG EG | [AG]A [A2A2] AG EG | [AG]A [A2A2] AG EG | 
[AG]A Ac B/c/B Aa | "Am"^ga "D"=ga "Em"^fa "F"=fd | "Em"[e/4d/4]e/4[e/e/][e/e/][e/e/] "D"[e/e/][e/e/][e/e/][e/e/] "C"[ee]z "D"BG | 
"Am"[A/4G/4]A/4[A/A/][A/A/][A/A/] [A/A/][A/A/][A/A/][A/A/] [A/A/][A/A/][A/A/][A/A/] EG | 
[AG]A Ac B/c/B Aa | "Am"^gd "D"^cG "Em"^FC "F"B,G, | "Am"[^D/4^G,/4][E/4A,/4][E/A,/][E/A,/][E/A,/] [E/A,/][E/A,/][E/A,/][E/A,/] [E4A,4] | 

